name_svg/Literature.svg

<?xml version="1.0" encoding="UTF-8"?>
<svg id="_레이어_2" data-name="레이어 2" xmlns="http://www.w3.org/2000/svg" viewBox="0 0 1094.86 208.57">
  <g id="kerning">
    <g>
      <g>
        <path d="M254.37,200.87c-14,0-23.36-8.76-23.36-34.8v-99.36h0v-16.25l-46.89,34.68c-1.1.82-.16,2.52,1.13,2.04,3.65-1.39,8.11-4.24,12.81-6.78,6.81-3.67,15.07,1.33,15.07,9.06v78.36c0,21.13-7.28,33.05-18.72,33.05,0,0-4.74-.37-7.42,0-6.39.88-18.66,7.69-7.76,7.69h88.51v-7.69h-13.36Z"/>
        <path d="M209.33,24.3v17.13l20.92-15.34V0l-13.69,10.04c-4.54,3.33-7.22,8.62-7.22,14.26Z"/>
      </g>
      <path d="M149.06,193.76c-8.07,7.61-18.71,7.12-29.81,7.12h-29.57c-14,0-25.36-10.61-25.36-34.8V49.5s0,0,0,.01V0L.42,43.77c-.94.64-.17,2.1.89,1.68,6.82-2.73,16.59-8.49,26.51-12.07,9.06-3.27,18.61,3.44,18.61,13.07,0,45.13,0,121.37,0,121.37,0,18.94-9.28,33.05-20.72,33.05,0,0-8.13-.37-10.81,0-6.39.88-18.66,7.69-7.76,7.69h157.74v-42.83h-.77c-2.13,8.44-10.09,23.34-15.05,28.02Z"/>
      <path d="M554.28,100.02l-44.34,30.59v-42.93s-46.89,34.68-46.89,34.68c-1.1.82-.16,2.52,1.13,2.04,3.65-1.39,8.11-4.24,12.81-6.78,6.81-3.67,15.07,1.33,15.07,9.06l.02,41.15c0,21.13-2.56,31.67-17.4,33.05-6.43.6-18.66,7.69-7.76,7.69h69.6v-7.69h-3.2c-18.12,0-23.36-8.76-23.36-34.8h-.02v-28.99s44.34-30.86,44.34-30.86v37.73l17.89-12.34v-43.95l-17.89,12.34Z"/>
      <path d="M344.09,162.16v5.4c0,23.48-28.27,33.31-28.27,33.31h-.54c-10.77,0-19.75-13.17-19.75-22.52v-98.98l39.45-27.21v-6.07l-39.45,27.22V16.25h0V0l-46.89,34.68c-1.1.82-.16,2.52,1.13,2.04,3.65-1.39,8.11-4.24,12.81-6.78,6.81-3.67,15.07,1.33,15.07,9.06v46.64l-17.97,12.39v6.07l17.97-12.39v56.41h.01v30.43c0,16.22,9.19,30.02,24.46,30.02h16.65c22.18-9.25,43.23-22.03,43.23-47.56v-11.19l-17.89,12.34Z"/>
      <path d="M685.55,200.87c-18.12,0-23.36-8.76-23.36-34.8h-.02v-4.48c0-.2,0-.39,0-.59v-54.72c0-18.19-7.36-25.4-17.89-19.97l-47.57,32.82-18.09,12.24v32.24l18.09-12.48v-25.5l29.64-20.63c7.57-5.27,17.93-4.46,17.93,16.05v13.49s-65.66,45.29-65.66,45.29v10.64c0,9.99,12,18.09,23.91,18.09h22.73c7.21-3.01,13.62-5.96,19.01-9.59h0c0,1.89,4.72,9.59,14.37,9.59h30.09v-7.69h-3.2ZM624.5,200.87h-8.66c-10.56,0-19.13-8.56-19.13-19.13v-8.3l47.57-32.81v26.93c0,26.84-19.78,33.31-19.78,33.31Z"/>
      <path d="M761.7,162.16v5.4c0,23.48-28.27,33.31-28.27,33.31h-.54c-10.77,0-19.75-13.17-19.75-22.52v-98.98l39.45-27.21v-6.07l-39.45,27.22V16.25h0V0l-46.89,34.68c-1.1.82-.16,2.52,1.13,2.04,3.65-1.39,8.11-4.24,12.81-6.78,6.81-3.67,15.07,1.33,15.07,9.06v46.64l-17.97,12.39v6.07l17.97-12.39v56.41h.01v30.43c0,16.22,9.19,30.02,24.46,30.02h16.65c22.18-9.25,43.23-22.03,43.23-47.56v-11.19l-17.89,12.34Z"/>
      <path d="M991.09,100.02l-44.34,30.59v-42.93s-46.89,34.68-46.89,34.68c-1.1.82-.16,2.52,1.13,2.04,3.65-1.39,8.11-4.24,12.81-6.78,6.81-3.67,15.07,1.33,15.07,9.06l.02,41.15c0,21.13-2.56,31.67-17.4,33.05-6.43.6-18.66,7.69-7.76,7.69h69.6v-7.69h-3.2c-18.12,0-23.36-8.76-23.36-34.8h-.02v-28.99s44.34-30.86,44.34-30.86v37.73l17.89-12.34v-43.95l-17.89,12.34Z"/>
      <path d="M891.64,200.87c-18.12,0-23.36-8.76-23.36-34.8h-.02v-88.1s-46.9,34.68-46.9,34.68c-1.1.82-.16,2.52,1.13,2.04,3.65-1.39,8.11-4.24,12.81-6.78,6.81-3.67,15.07,1.33,15.07,9.06l.02,50.58c0,26.84-25.62,33.31-25.62,33.31h-2.51c-5.31-.39-20.02-7.36-20.02-42.69v-39.27l-18.1,12.49v29.96c0,33.18,22.59,47.2,40.48,47.2,0,0,13.71-3.84,25.77-13.43,0,0,2.32,13.43,14.37,13.43h30.09v-7.69h-3.2Z"/>
      <path d="M435.14,95.02l-47.57,32.82h0s-15.88,10.96-15.88,10.96v39.76c0,16.22,9.19,30.02,24.46,30.02h19.98c22.18-9.25,36.91-17.95,36.91-47.56v-11.19l-17.89,12.34v5.4c0,26.84-19.78,33.31-19.78,33.31h-6.04c-10.79,0-19.54-8.75-19.54-19.54h0s62.07-42.82,62.07-42.82l1.19-.82v-55.02l-17.89,12.34ZM389.78,132.8l45.36-31.57v42.73l-45.36,31.29v-42.45Z"/>
      <path d="M1076.96,95.02l-47.57,32.82h0s-15.88,10.96-15.88,10.96v39.76c0,16.22,9.19,30.02,24.46,30.02h19.98c22.18-9.25,36.91-17.95,36.91-47.56v-11.19l-17.89,12.34v5.4c0,26.84-19.78,33.31-19.78,33.31h-6.04c-10.79,0-19.54-8.75-19.54-19.54h0s62.07-42.82,62.07-42.82l1.19-.82v-55.02l-17.89,12.34ZM1031.6,132.8l45.36-31.57v42.73l-45.36,31.29v-42.45Z"/>
    </g>
  </g>
</svg>

<svg width="1095" height="209" viewBox="0 0 1095 209" fill="none" xmlns="http://www.w3.org/2000/svg">
<g clip-path="url(#clip0_1_135)">
<path d="M254.37 200.87C240.37 200.87 231.01 192.11 231.01 166.07V66.71V50.46L184.12 85.14C183.02 85.96 183.96 87.66 185.25 87.18C188.9 85.79 193.36 82.94 198.06 80.4C204.87 76.73 213.13 81.73 213.13 89.46V167.82C213.13 188.95 205.85 200.87 194.41 200.87C194.41 200.87 189.67 200.5 186.99 200.87C180.6 201.75 168.33 208.56 179.23 208.56H267.74V200.87H254.38H254.37Z" fill="white"/>
<path d="M209.33 24.3V41.43L230.25 26.09V0L216.56 10.04C212.02 13.37 209.34 18.66 209.34 24.3H209.33Z" fill="white"/>
<path d="M149.06 193.76C140.99 201.37 130.35 200.88 119.25 200.88H89.68C75.68 200.88 64.32 190.27 64.32 166.08V49.5C64.32 49.5 64.32 49.5 64.32 49.51V0L0.420001 43.77C-0.519999 44.41 0.250001 45.87 1.31 45.45C8.13 42.72 17.9 36.96 27.82 33.38C36.88 30.11 46.43 36.82 46.43 46.45C46.43 91.58 46.43 167.82 46.43 167.82C46.43 186.76 37.15 200.87 25.71 200.87C25.71 200.87 17.58 200.5 14.9 200.87C8.51 201.75 -3.76 208.56 7.14 208.56H164.88V165.73H164.11C161.98 174.17 154.02 189.07 149.06 193.75V193.76Z" fill="white"/>
<path d="M554.28 100.02L509.94 130.61V87.68L463.05 122.36C461.95 123.18 462.89 124.88 464.18 124.4C467.83 123.01 472.29 120.16 476.99 117.62C483.8 113.95 492.06 118.95 492.06 126.68L492.08 167.83C492.08 188.96 489.52 199.5 474.68 200.88C468.25 201.48 456.02 208.57 466.92 208.57H536.52V200.88H533.32C515.2 200.88 509.96 192.12 509.96 166.08H509.94V137.09L554.28 106.23V143.96L572.17 131.62V87.67L554.28 100.01V100.02Z" fill="white"/>
<path d="M344.09 162.16V167.56C344.09 191.04 315.82 200.87 315.82 200.87H315.28C304.51 200.87 295.53 187.7 295.53 178.35V79.37L334.98 52.16V46.09L295.53 73.31V16.25V0L248.64 34.68C247.54 35.5 248.48 37.2 249.77 36.72C253.42 35.33 257.88 32.48 262.58 29.94C269.39 26.27 277.65 31.27 277.65 39V85.64L259.68 98.03V104.1L277.65 91.71V148.12H277.66V178.55C277.66 194.77 286.85 208.57 302.12 208.57H318.77C340.95 199.32 362 186.54 362 161.01V149.82L344.11 162.16H344.09Z" fill="white"/>
<path d="M685.55 200.87C667.43 200.87 662.19 192.11 662.19 166.07H662.17V161.59C662.17 161.39 662.17 161.2 662.17 161V106.28C662.17 88.09 654.81 80.88 644.28 86.31L596.71 119.13L578.62 131.37V163.61L596.71 151.13V125.63L626.35 105C633.92 99.73 644.28 100.54 644.28 121.05V134.54L578.62 179.83V190.47C578.62 200.46 590.62 208.56 602.53 208.56H625.26C632.47 205.55 638.88 202.6 644.27 198.97C644.27 200.86 648.99 208.56 658.64 208.56H688.73V200.87H685.53H685.55ZM624.5 200.87H615.84C605.28 200.87 596.71 192.31 596.71 181.74V173.44L644.28 140.63V167.56C644.28 194.4 624.5 200.87 624.5 200.87Z" fill="white"/>
<path d="M761.7 162.16V167.56C761.7 191.04 733.43 200.87 733.43 200.87H732.89C722.12 200.87 713.14 187.7 713.14 178.35V79.37L752.59 52.16V46.09L713.14 73.31V16.25V0L666.25 34.68C665.15 35.5 666.09 37.2 667.38 36.72C671.03 35.33 675.49 32.48 680.19 29.94C687 26.27 695.26 31.27 695.26 39V85.64L677.29 98.03V104.1L695.26 91.71V148.12H695.27V178.55C695.27 194.77 704.46 208.57 719.73 208.57H736.38C758.56 199.32 779.61 186.54 779.61 161.01V149.82L761.72 162.16H761.7Z" fill="white"/>
<path d="M991.09 100.02L946.75 130.61V87.68L899.86 122.36C898.76 123.18 899.7 124.88 900.99 124.4C904.64 123.01 909.1 120.16 913.8 117.62C920.61 113.95 928.87 118.95 928.87 126.68L928.89 167.83C928.89 188.96 926.33 199.5 911.49 200.88C905.06 201.48 892.83 208.57 903.73 208.57H973.33V200.88H970.13C952.01 200.88 946.77 192.12 946.77 166.08H946.75V137.09L991.09 106.23V143.96L1008.98 131.62V87.67L991.09 100.01V100.02Z" fill="white"/>
<path d="M891.64 200.87C873.52 200.87 868.28 192.11 868.28 166.07H868.26V77.97L821.36 112.65C820.26 113.47 821.2 115.17 822.49 114.69C826.14 113.3 830.6 110.45 835.3 107.91C842.11 104.24 850.37 109.24 850.37 116.97L850.39 167.55C850.39 194.39 824.77 200.86 824.77 200.86H822.26C816.95 200.47 802.24 193.5 802.24 158.17V118.9L784.14 131.39V161.35C784.14 194.53 806.73 208.55 824.62 208.55C824.62 208.55 838.33 204.71 850.39 195.12C850.39 195.12 852.71 208.55 864.76 208.55H894.85V200.86H891.65L891.64 200.87Z" fill="white"/>
<path d="M435.14 95.02L387.57 127.84L371.69 138.8V178.56C371.69 194.78 380.88 208.58 396.15 208.58H416.13C438.31 199.33 453.04 190.63 453.04 161.02V149.83L435.15 162.17V167.57C435.15 194.41 415.37 200.88 415.37 200.88H409.33C398.54 200.88 389.79 192.13 389.79 181.34L451.86 138.52L453.05 137.7V82.68L435.16 95.02H435.14ZM389.78 132.8L435.14 101.23V143.96L389.78 175.25V132.8Z" fill="white"/>
<path d="M1076.96 95.02L1029.39 127.84L1013.51 138.8V178.56C1013.51 194.78 1022.7 208.58 1037.97 208.58H1057.95C1080.13 199.33 1094.86 190.63 1094.86 161.02V149.83L1076.97 162.17V167.57C1076.97 194.41 1057.19 200.88 1057.19 200.88H1051.15C1040.36 200.88 1031.61 192.13 1031.61 181.34L1093.68 138.52L1094.87 137.7V82.68L1076.98 95.02H1076.96ZM1031.6 132.8L1076.96 101.23V143.96L1031.6 175.25V132.8Z" fill="white"/>
</g>
<defs>
<clipPath id="clip0_1_135">
<rect width="1094.86" height="208.57" fill="white"/>
</clipPath>
</defs>
</svg>
